app/img/icomoon/telegram.svg

<svg width="26" height="25" viewBox="0 0 26 25" fill="none" xmlns="http://www.w3.org/2000/svg">
<path d="M24.0703 0.995827C23.7344 1.01145 23.418 1.10911 23.1367 1.21848H23.1328C22.8477 1.33176 21.4922 1.90208 19.4336 2.76536C17.375 3.63255 14.7031 4.75755 12.0508 5.87473C6.75392 8.1052 1.54689 10.3005 1.54689 10.3005L1.60939 10.2771C1.60939 10.2771 1.25002 10.3943 0.875016 10.6521C0.68361 10.7771 0.472672 10.949 0.289079 11.2185C0.105485 11.488 -0.0429527 11.9021 0.0117353 12.3279C0.101579 13.0505 0.570329 13.4841 0.906266 13.7224C1.24611 13.9646 1.57033 14.0779 1.57033 14.0779H1.57814L6.46095 15.7224C6.6797 16.4255 7.94924 20.5974 8.25392 21.5583C8.43361 22.1325 8.60939 22.4919 8.82814 22.7654C8.93361 22.906 9.05861 23.0232 9.20705 23.1169C9.26564 23.1521 9.32814 23.1794 9.39064 23.2029C9.41017 23.2146 9.4297 23.2185 9.45314 23.2224L9.40236 23.2107C9.41798 23.2146 9.4297 23.2263 9.44142 23.2302C9.48049 23.2419 9.50783 23.2458 9.55861 23.2536C10.332 23.488 10.9531 23.0075 10.9531 23.0075L10.9883 22.9802L13.8711 20.3552L18.7031 24.0622L18.8125 24.1091C19.8203 24.5505 20.8399 24.3044 21.3789 23.8708C21.9219 23.4333 22.1328 22.8747 22.1328 22.8747L22.168 22.7849L25.9024 3.65598C26.0078 3.18333 26.0352 2.74192 25.918 2.31223C25.8008 1.88255 25.5 1.4802 25.1367 1.26536C24.7695 1.04661 24.4063 0.980202 24.0703 0.995827ZM23.9688 3.04661C23.9649 3.10911 23.9766 3.1013 23.9492 3.22239V3.23411L20.25 22.1638C20.2344 22.1911 20.207 22.2497 20.1328 22.3083C20.0547 22.3708 19.9922 22.4099 19.668 22.281L13.7578 17.7497L10.1875 21.0036L10.9375 16.2146C10.9375 16.2146 20.1953 7.58567 20.5938 7.21458C20.9922 6.84348 20.8594 6.76536 20.8594 6.76536C20.8867 6.31223 20.2578 6.63255 20.2578 6.63255L8.08205 14.1755L8.07814 14.156L2.2422 12.1911V12.1872C2.2383 12.1872 2.23049 12.1833 2.22658 12.1833C2.23049 12.1833 2.25783 12.1716 2.25783 12.1716L2.28908 12.156L2.32033 12.1443C2.32033 12.1443 7.53127 9.94895 12.8281 7.71848C15.4805 6.6013 18.1524 5.4763 20.207 4.60911C22.2617 3.74583 23.7813 3.11301 23.8672 3.07786C23.9492 3.04661 23.9102 3.04661 23.9688 3.04661Z" fill="white"/>
</svg>

<svg width="26" height="25" fill="none" xmlns="http://www.w3.org/2000/svg"><path d="M24.07.996a2.974 2.974 0 00-.933.222h-.004c-.285.114-1.64.684-3.7 1.547l-7.382 3.11C6.754 8.105 1.547 10.3 1.547 10.3l.062-.023s-.359.117-.734.375a2.03 2.03 0 00-.586.567 1.658 1.658 0 00-.277 1.109c.09.723.558 1.156.894 1.394.34.243.664.356.664.356h.008l4.883 1.644c.219.704 1.488 4.875 1.793 5.836.18.575.355.934.574 1.207.106.141.23.258.38.352a1.12 1.12 0 00.245.105l-.05-.011c.015.004.027.015.038.02.04.01.067.015.118.023.773.234 1.394-.247 1.394-.247l.035-.027 2.883-2.625 4.832 3.707.11.047c1.007.441 2.027.195 2.566-.238.543-.438.754-.996.754-.996l.035-.09 3.734-19.129c.106-.473.133-.914.016-1.344a1.807 1.807 0 00-.781-1.047 1.871 1.871 0 00-1.067-.27zm-.101 2.05c-.004.063.008.055-.02.176v.012l-3.699 18.93c-.016.027-.043.086-.117.144-.078.063-.14.102-.465-.027l-5.91-4.531-3.57 3.254.75-4.79 9.656-9c.398-.37.265-.449.265-.449.028-.453-.601-.132-.601-.132L8.082 14.175l-.004-.019-5.836-1.965v-.004c-.004 0-.012-.004-.015-.004.003 0 .03-.011.03-.011l.032-.016.031-.012 10.508-4.426c2.652-1.117 5.324-2.242 7.379-3.109 2.055-.863 3.574-1.496 3.66-1.531.082-.031.043-.031.102-.031z" fill="#fff"/></svg>
